src/assets/icon/copy.svg

<svg width="20" height="20" viewBox="0 0 20 20" fill="none" xmlns="http://www.w3.org/2000/svg">
<mask id="mask0_453_13302" style="mask-type:alpha" maskUnits="userSpaceOnUse" x="0" y="0" width="20" height="20">
<rect width="20" height="20" fill="#D9D9D9"/>
</mask>
<g mask="url(#mask0_453_13302)">
<path d="M7.54813 14.5835C7.12715 14.5835 6.77083 14.4377 6.47917 14.146C6.1875 13.8543 6.04167 13.498 6.04167 13.077V3.58995C6.04167 3.16898 6.1875 2.81266 6.47917 2.521C6.77083 2.22933 7.12715 2.0835 7.54813 2.0835H14.5352C14.9562 2.0835 15.3125 2.22933 15.6042 2.521C15.8958 2.81266 16.0417 3.16898 16.0417 3.58995V13.077C16.0417 13.498 15.8958 13.8543 15.6042 14.146C15.3125 14.4377 14.9562 14.5835 14.5352 14.5835H7.54813ZM7.54813 13.3335H14.5352C14.5994 13.3335 14.6581 13.3068 14.7115 13.2533C14.7649 13.2 14.7917 13.1412 14.7917 13.077V3.58995C14.7917 3.52579 14.7649 3.46704 14.7115 3.4137C14.6581 3.36023 14.5994 3.3335 14.5352 3.3335H7.54813C7.48396 3.3335 7.42521 3.36023 7.37187 3.4137C7.3184 3.46704 7.29167 3.52579 7.29167 3.58995V13.077C7.29167 13.1412 7.3184 13.2 7.37187 13.2533C7.42521 13.3068 7.48396 13.3335 7.54813 13.3335ZM4.63146 17.5002C4.21049 17.5002 3.85417 17.3543 3.5625 17.0627C3.27083 16.771 3.125 16.4147 3.125 15.9937V5.88162C3.125 5.70426 3.18486 5.55572 3.30458 5.436C3.42417 5.31641 3.57264 5.25662 3.75 5.25662C3.92736 5.25662 4.0759 5.31641 4.19562 5.436C4.31521 5.55572 4.375 5.70426 4.375 5.88162V15.9937C4.375 16.0579 4.40174 16.1166 4.45521 16.17C4.50854 16.2234 4.56729 16.2502 4.63146 16.2502H12.2435C12.4209 16.2502 12.5694 16.31 12.6892 16.4295C12.8088 16.5493 12.8685 16.6978 12.8685 16.8752C12.8685 17.0525 12.8088 17.201 12.6892 17.3206C12.5694 17.4403 12.4209 17.5002 12.2435 17.5002H4.63146Z" fill="black"/>
</g>
</svg>

<svg xmlns="http://www.w3.org/2000/svg" width="20" height="20" fill="none" xmlns:v="https://vecta.io/nano"><mask id="A" maskUnits="userSpaceOnUse" x="0" y="0" width="20" height="20" mask-type="alpha"><path fill="#d9d9d9" d="M0 0h20v20H0z"/></mask><g mask="url(#A)"><path d="M7.548 14.584c-.421 0-.777-.146-1.069-.437s-.437-.648-.437-1.069V3.59c0-.421.146-.777.438-1.069s.648-.437 1.069-.437h6.987c.421 0 .777.146 1.069.438s.437.648.437 1.069v9.487c0 .421-.146.777-.437 1.069s-.648.438-1.069.438H7.548zm0-1.25h6.987c.064 0 .123-.027.176-.08s.08-.112.08-.176V3.59c0-.064-.027-.123-.08-.176s-.112-.08-.176-.08H7.548c-.064 0-.123.027-.176.08s-.08.112-.08.176v9.487c0 .064.027.123.08.176s.112.08.176.08zM4.631 17.5c-.421 0-.777-.146-1.069-.437s-.437-.648-.437-1.069V5.882c0-.177.06-.326.18-.446s.268-.179.445-.179.326.06.446.179.179.268.179.446v10.112c0 .064.027.123.08.176s.112.08.176.08h7.612c.177 0 .326.06.446.179s.179.268.179.446-.06.326-.179.445-.268.18-.446.18H4.631z" fill="#000"/></g></svg>
